X:1
T:Galápagos, 86.86.86 D
T:Galápagos, 86.86.86 D
T:Nellie M. Jefferis, 1881
T:Public Domain Courtesy of the Cyber Hymnal™
C:Nellie M. Jefferis, 1881
Z:Public Domain
Z:Courtesy of the Cyber Hymnal™
%%score ( 1 2 ) ( 3 4 )
L:1/8
Q:1/4=105
M:6/8
K:G
V:1 treble 
V:2 treble 
V:3 bass 
V:4 bass 
V:1
 D | [GB]2 [GB] (BA)[DG] | [EA]2 [EG] ([EG][DF])[CE] | [B,D]2 [DG] [DB]2 G | [FA]3- [FA]2 [Fc] | %5
 [GB]2 [GB] (BA)[DG] | [EA]2 [EG] ([EG][DF])[CE] | [B,D]2 [DG] [DG]2 [DF] | [DG]3- [DG]2 [DG] | %9
 [EG]2 [Gc] (cd)[Ge] | [Gd]2 [GB] (BA)G | [FA]2 [FA] ([FA]G)[FA] | [GB]3- [GB]2 [DG] | %13
 [EG]2 [Ec] (cd)[Ge] | [Gd]2 [GB] (BA)G | [FA]2 [Fd] [E^c]2 [Ge] | [Fd]3- [Fd]2 | %17
 [Fc] [GB]2 [GB] (BA)[DG] | [EA]2 [EG] ([EG][DF])[CE] | [B,D]2 [DG] [DB]2 G | [FA]3- [FA]2 [Fc] | %21
 [GB]2 [GB] (BA)[DG] | [EA]2 [EG] ([EG][DF])[CE] | [B,D]2 [DG] [DG]2 [DF] | [DG]3- [DG]2 |] %25
V:2
 D | x3 G2 x | x6 | x5 G | x6 | x3 G2 x | x6 | x6 | x6 | x3 G2 x | x3 G2 G | x4 G x | x6 | %13
 x3 G2 x | x3 G2 G | x6 | x5 | x4 G2 x | x6 | x5 G | x6 | x3 G2 x | x6 | x6 | x5 |] %25
V:3
 [G,B,] | [G,D]2 [G,D] (DC)[G,B,] | [C,C]2 [C,C] [C,C]2 [C,G,] | %3
 [G,,G,]2 [G,,G,] [G,,G,]2 [G,,B,] | [D,D]3- [D,D]2 [D,D] | [G,D]2 [G,D] (DC)[G,B,] | %6
 [C,C]2 [C,C] [C,C]2 [C,G,] | [D,G,]2 [D,B,] [D,A,]2 [D,C] | [G,,B,]3- [G,,B,]2 [G,,B,] | %9
 [C,C]2 [C,E] (ED)[C,C] | [G,B,]2 [G,D] (DC)[G,B,] | [D,D]2 [D,D] D2 [A,D] | %12
 [G,D]3- [G,D]2 [G,B,] | [C,C]2 [C,E] (ED)[C,C] | [G,B,]2 [G,D] (DC)[G,B,] | %15
 A,2 [A,,A,] [A,,A,]2 [A,,A,] | [D,A,]3- [D,A,]2 | [D,B,] [G,D]2 [G,D] (DC)[G,B,] | %18
 [C,C]2 [C,C] [C,C]2 [C,G,] | [G,,G,]2 [G,,G,] [G,,G,]2 [G,,B,] | [D,D]3- [D,D]2 [D,D] | %21
 [G,D]2 [G,D] (DC)[G,B,] | [C,C]2 [C,C] [C,C]2 [C,G,] | [D,G,]2 [D,B,] [D,A,]2 [D,C] | %24
 [G,,B,]3- [G,,B,]2 |] %25
V:4
 x | x3 G,2 x | x6 | x6 | x6 | x3 G,2 x | x6 | x6 | x6 | x3 C,2 x | x3 G,2 x | x3 (CB,) x | x6 | %13
 x3 C,2 x | x3 G,2 x | A,2 x4 | x5 | x4 G,2 x | x6 | x6 | x6 | x3 G,2 x | x6 | x6 | x5 |] %25

